images/new-icons8-rocket.svg

<svg height="512pt" viewBox="0 0 512 512" width="512pt" xmlns="http://www.w3.org/2000/svg"><path d="m476.71875 14.375c-1.84375-.15625-3.71875-.09375-5.59375.1875l-49.09375 7.1875c-59.125 8.65625-113.125 38.34375-152.0625 83.625l-70.5625 81.96875-122.75 30.53125c-8.15625 2.03125-15.34375 6.5-20.8125 12.90625l-26.21875 30.84375c-4.09375 4.8125-5 11.375-2.34375 17.09375s8.21875 9.28125 14.53125 9.28125h81.5c.375 3.1875 1.40625 6.25 3.03125 9.09375l-17.25 31.75c-.21875.40625-.40625.84375-.5625 1.28125-.78125 2.375-1.1875 4.8125-1.25 7.21875l-3.59375 1.09375c-28.875 8.84375-50.8125 31.0625-58.71875 59.4375-6.59375 23.71875-8.5 48.15625-9.03125 60.65625-.15625 4.46875 1.53125 8.8125 4.6875 11.96875 2.96875 2.96875 7.0625 4.65625 11.25 4.65625.25 0 .46875 0 .6875-.03125 12.40625-.5 36.75-2.375 60.375-8.90625 28.1875-7.8125 51.0625-30.5625 59.65625-59.34375l.53125-1.8125c.4375.03125.84375.09375 1.28125.09375 2.75 0 5.53125-.4375 8.3125-1.34375.40625-.125.78125-.3125 1.15625-.53125l31.84375-16.78125c2.59375 1.53125 5.375 2.53125 8.28125 3v80.71875c0 6.3125 3.53125 11.875 9.25 14.53125 2.1875 1 4.5 1.5 6.78125 1.5 3.71875 0 7.34375-1.3125 10.3125-3.84375l30.875-26.25c6.40625-5.46875 10.84375-12.65625 12.90625-20.8125l30-120.6875 83.375-71.75c45.28125-38.9375 74.96875-92.96875 83.625-152.0625l7.15625-49.09375c1.15625-7.53125-1.3125-15-6.71875-20.40625-4.0625-4.0625-9.3125-6.46875-14.84375-6.96875zm-2.09375 15.9375c2.09375 0 4.09375.8125 5.625 2.3125 1.78125 1.8125 2.625 4.3125 2.25 6.84375l-7.1875 49.0625c-8.09375 55.3125-35.875 105.84375-78.21875 142.28125l-83.5625 71.90625c-1.15625.59375-2.1875 1.40625-2.9375 2.53125l-77.5625 66.71875c-3.125 2.71875-7.90625 2.53125-10.875-.40625l-80.8125-80.8125c-2.9375-2.96875-3.125-7.75-.4375-10.875l141.1875-164.0625c17.3125-20.125 37.8125-36.90625 60.5-49.90625l35.75 35.75c1.5625 1.5625 3.59375 2.34375 5.65625 2.34375s4.09375-.78125 5.65625-2.34375c3.125-3.125 3.125-8.1875 0-11.3125l-32.25-32.25c21-10.09375 43.53125-17.09375 66.9375-20.53125l49.0625-7.1875c.40625-.03125.8125-.0625 1.21875-.0625zm-66.625 81.6875c-2.03125 0-4.09375.78125-5.65625 2.34375-3.125 3.125-3.125 8.1875 0 11.3125l24 24c1.5625 1.5625 3.59375 2.34375 5.65625 2.34375s4.09375-.78125 5.65625-2.34375c3.125-3.125 3.125-8.1875 0-11.3125l-24-24c-1.5625-1.5625-3.625-2.34375-5.65625-2.34375zm-64 8c-26.46875 0-48 21.53125-48 48s21.53125 48 48 48 48-21.53125 48-48-21.53125-48-48-48zm0 16c17.65625 0 32 14.34375 32 32s-14.34375 32-32 32-32-14.34375-32-32 14.34375-32 32-32zm-162.625 72.3125-52.5625 61.09375c-.6875.84375-1.25 1.71875-1.8125 2.59375h-85.1875l26.25-30.875c3.25-3.8125 7.5625-6.5 12.46875-7.71875zm100.84375 3.0625c-2.0625 0-4.09375.78125-5.6875 2.34375-3.125 3.125-3.125 8.1875 0 11.3125l11.34375 11.3125c1.53125 1.5625 3.59375 2.34375 5.625 2.34375 2.0625 0 4.125-.78125 5.65625-2.34375 3.15625-3.125 3.15625-8.1875 0-11.3125l-11.28125-11.3125c-1.59375-1.5625-3.625-2.34375-5.65625-2.34375zm-28.3125 28.28125c-2.03125 0-4.09375.78125-5.65625 2.34375-3.125 3.125-3.125 8.1875 0 11.3125l11.34375 11.3125c1.53125 1.5625 3.59375 2.34375 5.65625 2.34375 2.03125 0 4.09375-.78125 5.625-2.34375 3.15625-3.125 3.15625-8.1875 0-11.34375l-11.3125-11.28125c-1.5625-1.5625-3.625-2.34375-5.65625-2.34375zm-28.28125 28.3125c-2.03125 0-4.09375.75-5.65625 2.3125-3.125 3.15625-3.125 8.1875 0 11.34375l11.3125 11.28125c1.5625 1.5625 3.59375 2.34375 5.65625 2.34375s4.09375-.78125 5.65625-2.34375c3.125-3.125 3.125-8.15625 0-11.28125l-11.3125-11.34375c-1.5625-1.5625-3.625-2.3125-5.65625-2.3125zm-28.25 28.28125c-2.0625 0-4.09375.75-5.65625 2.34375-3.15625 3.09375-3.15625 8.15625 0 11.28125l11.28125 11.34375c1.5625 1.53125 3.59375 2.3125 5.65625 2.3125s4.09375-.78125 5.65625-2.3125c3.125-3.125 3.125-8.1875 0-11.34375l-11.3125-11.28125c-1.5625-1.59375-3.59375-2.34375-5.625-2.34375zm-59.65625 13.46875 65.375 65.40625-26 13.6875c-3.0625.875-6 .25-7.90625-1.65625l-43.46875-43.4375c-2.09375-2.125-2.90625-5.125-2.1875-7.96875zm165.4375 23.03125-24.5625 98.75c-1.21875 4.875-3.875 9.21875-7.71875 12.5l-30.875 26.21875v-83.65625c1.21875-.71875 2.375-1.53125 3.5-2.46875zm-190.90625 19.78125c.65625.875 1.375 1.71875 2.15625 2.46875l43.46875 43.5c.125.125.28125.1875.40625.34375l-1.03125 3.4375c-7.03125 23.59375-25.65625 42.15625-48.59375 48.5-22.0625 6.125-45.03125 7.875-56.71875 8.4375.5-11.78125 2.28125-34.875 8.4375-57.0625 6.4375-23.0625 24.375-41.1875 48-48.40625zm0 0" fill="#003e6b"/></svg>

<?xml version="1.0" encoding="UTF-8"?>
<svg xmlns="http://www.w3.org/2000/svg" xmlns:xlink="http://www.w3.org/1999/xlink" width="512pt" height="512pt" viewBox="0 0 512 512" version="1.1">
<g id="surface1306712">
<path style=" stroke:none;fill-rule:nonzero;fill:rgb(0%,24.313726%,41.960785%);fill-opacity:1;" d="M 476.71875 14.375 C 474.875 14.21875 473 14.28125 471.125 14.5625 L 422.03125 21.75 C 362.90625 30.40625 308.90625 60.09375 269.96875 105.375 L 199.40625 187.34375 L 76.65625 217.875 C 68.5 219.90625 61.3125 224.375 55.84375 230.78125 L 29.625 261.625 C 25.53125 266.4375 24.625 273 27.28125 278.71875 C 29.9375 284.4375 35.5 288 41.8125 288 L 123.3125 288 C 123.6875 291.1875 124.71875 294.25 126.34375 297.09375 L 109.09375 328.84375 C 108.875 329.25 108.6875 329.6875 108.53125 330.125 C 107.75 332.5 107.34375 334.9375 107.28125 337.34375 L 103.6875 338.4375 C 74.8125 347.28125 52.875 369.5 44.96875 397.875 C 38.375 421.59375 36.46875 446.03125 35.9375 458.53125 C 35.78125 463 37.46875 467.34375 40.625 470.5 C 43.59375 473.46875 47.6875 475.15625 51.875 475.15625 C 52.125 475.15625 52.34375 475.15625 52.5625 475.125 C 64.96875 474.625 89.3125 472.75 112.9375 466.21875 C 141.125 458.40625 164 435.65625 172.59375 406.875 L 173.125 405.0625 C 173.5625 405.09375 173.96875 405.15625 174.40625 405.15625 C 177.15625 405.15625 179.9375 404.71875 182.71875 403.8125 C 183.125 403.6875 183.5 403.5 183.875 403.28125 L 215.71875 386.5 C 218.3125 388.03125 221.09375 389.03125 224 389.5 L 224 470.21875 C 224 476.53125 227.53125 482.09375 233.25 484.75 C 235.4375 485.75 237.75 486.25 240.03125 486.25 C 243.75 486.25 247.375 484.9375 250.34375 482.40625 L 281.21875 456.15625 C 287.625 450.6875 292.0625 443.5 294.125 435.34375 L 324.125 314.65625 L 407.5 242.90625 C 452.78125 203.96875 482.46875 149.9375 491.125 90.84375 L 498.28125 41.75 C 499.4375 34.21875 496.96875 26.75 491.5625 21.34375 C 487.5 17.28125 482.25 14.875 476.71875 14.375 Z M 474.625 30.3125 C 476.71875 30.3125 478.71875 31.125 480.25 32.625 C 482.03125 34.4375 482.875 36.9375 482.5 39.46875 L 475.3125 88.53125 C 467.21875 143.84375 439.4375 194.375 397.09375 230.8125 L 313.53125 302.71875 C 312.375 303.3125 311.34375 304.125 310.59375 305.25 L 233.03125 371.96875 C 229.90625 374.6875 225.125 374.5 222.15625 371.5625 L 141.34375 290.75 C 138.40625 287.78125 138.21875 283 140.90625 279.875 L 282.09375 115.8125 C 299.40625 95.6875 319.90625 78.90625 342.59375 65.90625 L 378.34375 101.65625 C 379.90625 103.21875 381.9375 104 384 104 C 386.0625 104 388.09375 103.21875 389.65625 101.65625 C 392.78125 98.53125 392.78125 93.46875 389.65625 90.34375 L 357.40625 58.09375 C 378.40625 48 400.9375 41 424.34375 37.5625 L 473.40625 30.375 C 473.8125 30.34375 474.21875 30.3125 474.625 30.3125 Z M 408 112 C 405.96875 112 403.90625 112.78125 402.34375 114.34375 C 399.21875 117.46875 399.21875 122.53125 402.34375 125.65625 L 426.34375 149.65625 C 427.90625 151.21875 429.9375 152 432 152 C 434.0625 152 436.09375 151.21875 437.65625 149.65625 C 440.78125 146.53125 440.78125 141.46875 437.65625 138.34375 L 413.65625 114.34375 C 412.09375 112.78125 410.03125 112 408 112 Z M 344 120 C 317.53125 120 296 141.53125 296 168 C 296 194.46875 317.53125 216 344 216 C 370.46875 216 392 194.46875 392 168 C 392 141.53125 370.46875 120 344 120 Z M 344 136 C 361.65625 136 376 150.34375 376 168 C 376 185.65625 361.65625 200 344 200 C 326.34375 200 312 185.65625 312 168 C 312 150.34375 326.34375 136 344 136 Z M 181.375 208.3125 L 128.8125 269.40625 C 128.125 270.25 127.5625 271.125 127 272 L 41.8125 272 L 68.0625 241.125 C 71.3125 237.3125 75.625 234.625 80.53125 233.40625 Z M 282.21875 211.375 C 280.15625 211.375 278.125 212.15625 276.53125 213.71875 C 273.40625 216.84375 273.40625 221.90625 276.53125 225.03125 L 287.875 236.34375 C 289.40625 237.90625 291.46875 238.6875 293.5 238.6875 C 295.5625 238.6875 297.625 237.90625 299.15625 236.34375 C 302.3125 233.21875 302.3125 228.15625 299.15625 225.03125 L 287.875 213.71875 C 286.28125 212.15625 284.25 211.375 282.21875 211.375 Z M 253.90625 239.65625 C 251.875 239.65625 249.8125 240.4375 248.25 242 C 245.125 245.125 245.125 250.1875 248.25 253.3125 L 259.59375 264.625 C 261.125 266.1875 263.1875 266.96875 265.25 266.96875 C 267.28125 266.96875 269.34375 266.1875 270.875 264.625 C 274.03125 261.5 274.03125 256.4375 270.875 253.28125 L 259.5625 242 C 258 240.4375 255.9375 239.65625 253.90625 239.65625 Z M 225.625 267.96875 C 223.59375 267.96875 221.53125 268.71875 219.96875 270.28125 C 216.84375 273.4375 216.84375 278.46875 219.96875 281.625 L 231.28125 292.90625 C 232.84375 294.46875 234.875 295.25 236.9375 295.25 C 239 295.25 241.03125 294.46875 242.59375 292.90625 C 245.71875 289.78125 245.71875 284.75 242.59375 281.625 L 231.28125 270.28125 C 229.71875 268.71875 227.65625 267.96875 225.625 267.96875 Z M 197.375 296.25 C 195.3125 296.25 193.28125 297 191.71875 298.59375 C 188.5625 301.6875 188.5625 306.75 191.71875 309.875 L 203 321.21875 C 204.5625 322.75 206.59375 323.53125 208.65625 323.53125 C 210.71875 323.53125 212.75 322.75 214.3125 321.21875 C 217.4375 318.09375 217.4375 313.03125 214.3125 309.875 L 203 298.59375 C 201.4375 297 199.40625 296.25 197.375 296.25 Z M 137.71875 309.71875 L 203.09375 375.125 L 177.09375 388.8125 C 174.03125 389.6875 171.09375 389.0625 169.1875 387.15625 L 125.71875 343.71875 C 123.625 341.59375 122.8125 338.59375 123.53125 335.75 Z M 303.15625 332.75 L 278.59375 431.5 C 277.375 436.375 274.71875 440.71875 270.875 444 L 240 470.21875 L 240 386.5625 C 241.21875 385.84375 242.375 385.03125 243.5 384.09375 Z M 112.25 352.53125 C 112.90625 353.40625 113.625 354.25 114.40625 355 L 157.875 398.5 C 158 398.625 158.15625 398.6875 158.28125 398.84375 L 157.25 402.28125 C 150.21875 425.875 131.59375 444.4375 108.65625 450.78125 C 86.59375 456.90625 63.625 458.65625 51.9375 459.21875 C 52.4375 447.4375 54.21875 424.34375 60.375 402.15625 C 66.8125 379.09375 84.75 360.96875 108.375 353.75 Z M 112.25 352.53125 "/>
</g>
</svg>
